report_00007_2020-12-11T15:55:29.892Z/total-byte-weight/samples/pages+cached+noexternal+nocss/raw/values.svg

<svg width="640" height="490" xmlns="http://www.w3.org/2000/svg" xmlns:xlink="http://www.w3.org/1999/xlink"><path fill="#fff" d="M0 0h640v490H0z"/><defs><path id="d" stroke-width=".222" stroke="currentColor" d="M-1-1h2v2h-2z"/><path id="b" stroke-width=".222" stroke="currentColor" d="M0-1.33l-1.33 2h2.66z"/><path id="f" stroke-width=".222" stroke="currentColor" d="M0 1.33L1.265.411.782-1.067l-1.564-.009-.483 1.487z"/><use xlink:href="#b" id="c" stroke="currentColor" transform="rotate(180)"/><use xlink:href="#d" id="e" stroke="currentColor" transform="rotate(45)"/><circle id="a" stroke-width=".222" stroke="currentColor" cx="0" cy="0" r="1"/></defs><g fill="none" color="#000" stroke="currentColor"><path stroke="#000" d="M112 410.3h9m494 0h-9"/><text transform="translate(103.7 414.2)" stroke="none" fill="#000" font-family="Arial" font-size="12" text-anchor="end"><tspan>6.31155x10</tspan><tspan font-size="9.6" dy="-6">6</tspan></text></g><g fill="none" color="#000" stroke="currentColor"><path stroke="#000" d="M112 363.4h9m494 0h-9"/><text transform="translate(103.7 367.3)" stroke="none" fill="#000" font-family="Arial" font-size="12" text-anchor="end"><tspan>6.31156x10</tspan><tspan font-size="9.6" dy="-6">6</tspan></text></g><g fill="none" color="#000" stroke="currentColor"><path stroke="#000" d="M112 316.5h9m494 0h-9"/><text transform="translate(103.7 320.4)" stroke="none" fill="#000" font-family="Arial" font-size="12" text-anchor="end"><tspan>6.31156x10</tspan><tspan font-size="9.6" dy="-6">6</tspan></text></g><g fill="none" color="#000" stroke="currentColor"><path stroke="#000" d="M112 269.6h9m494 0h-9"/><text transform="translate(103.7 273.5)" stroke="none" fill="#000" font-family="Arial" font-size="12" text-anchor="end"><tspan>6.31156x10</tspan><tspan font-size="9.6" dy="-6">6</tspan></text></g><g fill="none" color="#000" stroke="currentColor"><path stroke="#000" d="M112 222.7h9m494 0h-9"/><text transform="translate(103.7 226.6)" stroke="none" fill="#000" font-family="Arial" font-size="12" text-anchor="end"><tspan>6.31157x10</tspan><tspan font-size="9.6" dy="-6">6</tspan></text></g><g fill="none" color="#000" stroke="currentColor"><path stroke="#000" d="M112 175.8h9m494 0h-9"/><text transform="translate(103.7 179.7)" stroke="none" fill="#000" font-family="Arial" font-size="12" text-anchor="end"><tspan>6.31158x10</tspan><tspan font-size="9.6" dy="-6">6</tspan></text></g><g fill="none" color="#000" stroke="currentColor"><path stroke="#000" d="M112 129h9m494 0h-9"/><text transform="translate(103.7 132.9)" stroke="none" fill="#000" font-family="Arial" font-size="12" text-anchor="end"><tspan>6.31158x10</tspan><tspan font-size="9.6" dy="-6">6</tspan></text></g><g fill="none" color="#000" stroke="currentColor"><path stroke="#000" d="M112 82.1h9m494 0h-9"/><text transform="translate(103.7 86)" stroke="none" fill="#000" font-family="Arial" font-size="12" text-anchor="end"><tspan>6.31158x10</tspan><tspan font-size="9.6" dy="-6">6</tspan></text></g><g fill="none" color="#000" stroke="currentColor"><path stroke="#000" d="M112 35.2h9m494 0h-9"/><text transform="translate(103.7 39.1)" stroke="none" fill="#000" font-family="Arial" font-size="12" text-anchor="end"><tspan>6.31159x10</tspan><tspan font-size="9.6" dy="-6">6</tspan></text></g><g fill="none" color="#000" stroke="currentColor"><path stroke="#000" d="M112 418v-9m0-390.9v9"/><text transform="translate(112 439.9)" stroke="none" fill="#000" font-family="Arial" font-size="12" text-anchor="middle"><tspan>0</tspan></text></g><g fill="none" color="#000" stroke="currentColor"><path stroke="#000" d="M162.8 418v-9m0-390.9v9"/><text transform="translate(162.8 439.9)" stroke="none" fill="#000" font-family="Arial" font-size="12" text-anchor="middle"><tspan>10</tspan></text></g><g fill="none" color="#000" stroke="currentColor"><path stroke="#000" d="M213.6 418v-9m0-390.9v9"/><text transform="translate(213.6 439.9)" stroke="none" fill="#000" font-family="Arial" font-size="12" text-anchor="middle"><tspan>20</tspan></text></g><g fill="none" color="#000" stroke="currentColor"><path stroke="#000" d="M264.4 418v-9m0-390.9v9"/><text transform="translate(264.4 439.9)" stroke="none" fill="#000" font-family="Arial" font-size="12" text-anchor="middle"><tspan>30</tspan></text></g><g fill="none" color="#000" stroke="currentColor"><path stroke="#000" d="M315.2 418v-9m0-390.9v9"/><text transform="translate(315.2 439.9)" stroke="none" fill="#000" font-family="Arial" font-size="12" text-anchor="middle"><tspan>40</tspan></text></g><g fill="none" color="#000" stroke="currentColor"><path stroke="#000" d="M366 418v-9m0-390.9v9"/><text transform="translate(366 439.9)" stroke="none" fill="#000" font-family="Arial" font-size="12" text-anchor="middle"><tspan>50</tspan></text></g><g fill="none" color="#000" stroke="currentColor"><path stroke="#000" d="M416.8 418v-9m0-390.9v9"/><text transform="translate(416.8 439.9)" stroke="none" fill="#000" font-family="Arial" font-size="12" text-anchor="middle"><tspan>60</tspan></text></g><g fill="none" color="#000" stroke="currentColor"><path stroke="#000" d="M467.7 418v-9m0-390.9v9"/><text transform="translate(467.7 439.9)" stroke="none" fill="#000" font-family="Arial" font-size="12" text-anchor="middle"><tspan>70</tspan></text></g><g fill="none" color="#000" stroke="currentColor"><path stroke="#000" d="M518.5 418v-9m0-390.9v9"/><text transform="translate(518.5 439.9)" stroke="none" fill="#000" font-family="Arial" font-size="12" text-anchor="middle"><tspan>80</tspan></text></g><g fill="none" color="#000" stroke="currentColor"><path stroke="#000" d="M569.3 418v-9m0-390.9v9"/><text transform="translate(569.3 439.9)" stroke="none" fill="#000" font-family="Arial" font-size="12" text-anchor="middle"><tspan>90</tspan></text></g><path stroke="#000" d="M112 18.1V418h503V18.1H112z" fill="none" color="#000"/><text transform="translate(304.7 457.9)" stroke="none" fill="#000" font-family="Arial" font-size="12" text-anchor="end" color="#000"><tspan>raw</tspan></text><path stroke="#9400D3" d="M313 454h42.2M112 147.7l5.1-112.5 5.1 159.4 5-93.8 5.1 131.3 5.1-121.9 5.1 187.6 5.1 28.1 5-178.2 5.1 103.2 5.1-197h5.1L173 129l5.1 103.1 5-103.1 5.1 159.4 5.1-178.2 5.1 65.6 5.1 234.5 5-281.3 5.1-9.4 5.1 9.4 5.1 28.1 5.1 103.2 5-46.9 5.1-122 5.1 37.6 5.1 103.1 5.1-46.9h5l5.1 75.1 5.1-225.1 5.1 56.2 5.1 168.9 5-37.6 5.1 84.4 5.1-112.5 5.1 56.3 5.1-84.4 5.1-28.2 5 9.4 5.1 93.8 5.1-178.2 5.1 187.6 5.1-28.2 5 122 5.1-103.2 5.1-18.8 5.1-103.1 5.1 37.5 5 65.6 5.1-121.9 5.1 131.3 5.1-28.1 5.1-28.2 5 56.3 5.1 65.7 5.1-159.5 5.1 28.2 5.1-93.8 5 103.1 5.1-131.3 5.1 206.4 5.1 150 5.1-300.1 5.1 121.9 5-28.1 5.1-103.2 5.1 75.1 5.1 9.3 5.1-37.5 5 56.3 5.1 9.4 5.1-75 5.1 93.7 5.1 9.4 5-196.9 5.1 56.2 5.1 206.4 5.1-37.5 5.1-197 5 187.6 5.1-18.8 5.1-28.1 5.1-46.9 5.1-28.1 5 9.3 5.1-37.5 5.1-65.6 5.1 18.7 5.1 103.2 5.1 131.3 5 18.7 5.1-140.6 5.1 84.4 5.1-225.1 5.1 206.3 5 56.3 5.1-234.5 5.1 318.9" fill="none" color="#000"/><text transform="translate(304.7 475.9)" stroke="none" fill="#000" font-family="Arial" font-size="12" text-anchor="end" color="#000"><tspan>score p10=2731008</tspan></text><path stroke="#009E73" d="M313 472h42.2" fill="none" color="#000"/><text transform="translate(529.5 457.9)" stroke="none" fill="#000" font-family="Arial" font-size="12" text-anchor="end" color="#000"><tspan>score median=4096000</tspan></text><path stroke="#56B4E9" d="M537.8 454H580" fill="none" color="#000"/><g fill="none" color="#000" stroke="currentColor"><path stroke="#000" d="M112 18.1V418h503V18.1H112z"/></g></svg>

<?xml version="1.0" encoding="utf-8"  standalone="no"?>
<svg 
 width="640" height="490"
 viewBox="0 0 640 490"
 xmlns="http://www.w3.org/2000/svg"
 xmlns:xlink="http://www.w3.org/1999/xlink"
>

<title>Gnuplot</title>
<desc>Produced by GNUPLOT 5.4 patchlevel 0 </desc>

<g id="gnuplot_canvas">

<rect x="0" y="0" width="640" height="490" fill="#ffffff"/>
<defs>

	<circle id='gpDot' r='0.5' stroke-width='0.5' stroke='currentColor'/>
	<path id='gpPt0' stroke-width='0.222' stroke='currentColor' d='M-1,0 h2 M0,-1 v2'/>
	<path id='gpPt1' stroke-width='0.222' stroke='currentColor' d='M-1,-1 L1,1 M1,-1 L-1,1'/>
	<path id='gpPt2' stroke-width='0.222' stroke='currentColor' d='M-1,0 L1,0 M0,-1 L0,1 M-1,-1 L1,1 M-1,1 L1,-1'/>
	<rect id='gpPt3' stroke-width='0.222' stroke='currentColor' x='-1' y='-1' width='2' height='2'/>
	<rect id='gpPt4' stroke-width='0.222' stroke='currentColor' fill='currentColor' x='-1' y='-1' width='2' height='2'/>
	<circle id='gpPt5' stroke-width='0.222' stroke='currentColor' cx='0' cy='0' r='1'/>
	<use xlink:href='#gpPt5' id='gpPt6' fill='currentColor' stroke='none'/>
	<path id='gpPt7' stroke-width='0.222' stroke='currentColor' d='M0,-1.33 L-1.33,0.67 L1.33,0.67 z'/>
	<use xlink:href='#gpPt7' id='gpPt8' fill='currentColor' stroke='none'/>
	<use xlink:href='#gpPt7' id='gpPt9' stroke='currentColor' transform='rotate(180)'/>
	<use xlink:href='#gpPt9' id='gpPt10' fill='currentColor' stroke='none'/>
	<use xlink:href='#gpPt3' id='gpPt11' stroke='currentColor' transform='rotate(45)'/>
	<use xlink:href='#gpPt11' id='gpPt12' fill='currentColor' stroke='none'/>
	<path id='gpPt13' stroke-width='0.222' stroke='currentColor' d='M0,1.330 L1.265,0.411 L0.782,-1.067 L-0.782,-1.076 L-1.265,0.411 z'/>
	<use xlink:href='#gpPt13' id='gpPt14' fill='currentColor' stroke='none'/>
	<filter id='textbox' filterUnits='objectBoundingBox' x='0' y='0' height='1' width='1'>
	  <feFlood flood-color='#FFFFFF' flood-opacity='1' result='bgnd'/>
	  <feComposite in='SourceGraphic' in2='bgnd' operator='atop'/>
	</filter>
	<filter id='greybox' filterUnits='objectBoundingBox' x='0' y='0' height='1' width='1'>
	  <feFlood flood-color='lightgrey' flood-opacity='1' result='grey'/>
	  <feComposite in='SourceGraphic' in2='grey' operator='atop'/>
	</filter>
</defs>
<g fill="none" color="#FFFFFF" stroke="black" stroke-width="1.00" stroke-linecap="butt" stroke-linejoin="miter">
</g>
<g fill="none" color="black" stroke="currentColor" stroke-width="1.00" stroke-linecap="butt" stroke-linejoin="miter">
	<path stroke='black'  d='M112.0,410.3 L121.0,410.3 M615.0,410.3 L606.0,410.3  '/>	<g transform="translate(103.7,414.2)" stroke="none" fill="black" font-family="Arial" font-size="12.00"  text-anchor="end">
		<text><tspan font-family="Arial" > 6.31155x10</tspan><tspan font-family="Arial"  font-size="9.6" dy="-6.00px">6</tspan><tspan font-size="12.0" dy="6.00"></tspan></text>
	</g>
</g>
<g fill="none" color="black" stroke="currentColor" stroke-width="1.00" stroke-linecap="butt" stroke-linejoin="miter">
	<path stroke='black'  d='M112.0,363.4 L121.0,363.4 M615.0,363.4 L606.0,363.4  '/>	<g transform="translate(103.7,367.3)" stroke="none" fill="black" font-family="Arial" font-size="12.00"  text-anchor="end">
		<text><tspan font-family="Arial" > 6.31156x10</tspan><tspan font-family="Arial"  font-size="9.6" dy="-6.00px">6</tspan><tspan font-size="12.0" dy="6.00"></tspan></text>
	</g>
</g>
<g fill="none" color="black" stroke="currentColor" stroke-width="1.00" stroke-linecap="butt" stroke-linejoin="miter">
	<path stroke='black'  d='M112.0,316.5 L121.0,316.5 M615.0,316.5 L606.0,316.5  '/>	<g transform="translate(103.7,320.4)" stroke="none" fill="black" font-family="Arial" font-size="12.00"  text-anchor="end">
		<text><tspan font-family="Arial" > 6.31156x10</tspan><tspan font-family="Arial"  font-size="9.6" dy="-6.00px">6</tspan><tspan font-size="12.0" dy="6.00"></tspan></text>
	</g>
</g>
<g fill="none" color="black" stroke="currentColor" stroke-width="1.00" stroke-linecap="butt" stroke-linejoin="miter">
	<path stroke='black'  d='M112.0,269.6 L121.0,269.6 M615.0,269.6 L606.0,269.6  '/>	<g transform="translate(103.7,273.5)" stroke="none" fill="black" font-family="Arial" font-size="12.00"  text-anchor="end">
		<text><tspan font-family="Arial" > 6.31156x10</tspan><tspan font-family="Arial"  font-size="9.6" dy="-6.00px">6</tspan><tspan font-size="12.0" dy="6.00"></tspan></text>
	</g>
</g>
<g fill="none" color="black" stroke="currentColor" stroke-width="1.00" stroke-linecap="butt" stroke-linejoin="miter">
	<path stroke='black'  d='M112.0,222.7 L121.0,222.7 M615.0,222.7 L606.0,222.7  '/>	<g transform="translate(103.7,226.6)" stroke="none" fill="black" font-family="Arial" font-size="12.00"  text-anchor="end">
		<text><tspan font-family="Arial" > 6.31157x10</tspan><tspan font-family="Arial"  font-size="9.6" dy="-6.00px">6</tspan><tspan font-size="12.0" dy="6.00"></tspan></text>
	</g>
</g>
<g fill="none" color="black" stroke="currentColor" stroke-width="1.00" stroke-linecap="butt" stroke-linejoin="miter">
	<path stroke='black'  d='M112.0,175.8 L121.0,175.8 M615.0,175.8 L606.0,175.8  '/>	<g transform="translate(103.7,179.7)" stroke="none" fill="black" font-family="Arial" font-size="12.00"  text-anchor="end">
		<text><tspan font-family="Arial" > 6.31158x10</tspan><tspan font-family="Arial"  font-size="9.6" dy="-6.00px">6</tspan><tspan font-size="12.0" dy="6.00"></tspan></text>
	</g>
</g>
<g fill="none" color="black" stroke="currentColor" stroke-width="1.00" stroke-linecap="butt" stroke-linejoin="miter">
	<path stroke='black'  d='M112.0,129.0 L121.0,129.0 M615.0,129.0 L606.0,129.0  '/>	<g transform="translate(103.7,132.9)" stroke="none" fill="black" font-family="Arial" font-size="12.00"  text-anchor="end">
		<text><tspan font-family="Arial" > 6.31158x10</tspan><tspan font-family="Arial"  font-size="9.6" dy="-6.00px">6</tspan><tspan font-size="12.0" dy="6.00"></tspan></text>
	</g>
</g>
<g fill="none" color="black" stroke="currentColor" stroke-width="1.00" stroke-linecap="butt" stroke-linejoin="miter">
	<path stroke='black'  d='M112.0,82.1 L121.0,82.1 M615.0,82.1 L606.0,82.1  '/>	<g transform="translate(103.7,86.0)" stroke="none" fill="black" font-family="Arial" font-size="12.00"  text-anchor="end">
		<text><tspan font-family="Arial" > 6.31158x10</tspan><tspan font-family="Arial"  font-size="9.6" dy="-6.00px">6</tspan><tspan font-size="12.0" dy="6.00"></tspan></text>
	</g>
</g>
<g fill="none" color="black" stroke="currentColor" stroke-width="1.00" stroke-linecap="butt" stroke-linejoin="miter">
	<path stroke='black'  d='M112.0,35.2 L121.0,35.2 M615.0,35.2 L606.0,35.2  '/>	<g transform="translate(103.7,39.1)" stroke="none" fill="black" font-family="Arial" font-size="12.00"  text-anchor="end">
		<text><tspan font-family="Arial" > 6.31159x10</tspan><tspan font-family="Arial"  font-size="9.6" dy="-6.00px">6</tspan><tspan font-size="12.0" dy="6.00"></tspan></text>
	</g>
</g>
<g fill="none" color="black" stroke="currentColor" stroke-width="1.00" stroke-linecap="butt" stroke-linejoin="miter">
	<path stroke='black'  d='M112.0,418.0 L112.0,409.0 M112.0,18.1 L112.0,27.1  '/>	<g transform="translate(112.0,439.9)" stroke="none" fill="black" font-family="Arial" font-size="12.00"  text-anchor="middle">
		<text><tspan font-family="Arial" > 0</tspan></text>
	</g>
</g>
<g fill="none" color="black" stroke="currentColor" stroke-width="1.00" stroke-linecap="butt" stroke-linejoin="miter">
	<path stroke='black'  d='M162.8,418.0 L162.8,409.0 M162.8,18.1 L162.8,27.1  '/>	<g transform="translate(162.8,439.9)" stroke="none" fill="black" font-family="Arial" font-size="12.00"  text-anchor="middle">
		<text><tspan font-family="Arial" > 10</tspan></text>
	</g>
</g>
<g fill="none" color="black" stroke="currentColor" stroke-width="1.00" stroke-linecap="butt" stroke-linejoin="miter">
	<path stroke='black'  d='M213.6,418.0 L213.6,409.0 M213.6,18.1 L213.6,27.1  '/>	<g transform="translate(213.6,439.9)" stroke="none" fill="black" font-family="Arial" font-size="12.00"  text-anchor="middle">
		<text><tspan font-family="Arial" > 20</tspan></text>
	</g>
</g>
<g fill="none" color="black" stroke="currentColor" stroke-width="1.00" stroke-linecap="butt" stroke-linejoin="miter">
	<path stroke='black'  d='M264.4,418.0 L264.4,409.0 M264.4,18.1 L264.4,27.1  '/>	<g transform="translate(264.4,439.9)" stroke="none" fill="black" font-family="Arial" font-size="12.00"  text-anchor="middle">
		<text><tspan font-family="Arial" > 30</tspan></text>
	</g>
</g>
<g fill="none" color="black" stroke="currentColor" stroke-width="1.00" stroke-linecap="butt" stroke-linejoin="miter">
	<path stroke='black'  d='M315.2,418.0 L315.2,409.0 M315.2,18.1 L315.2,27.1  '/>	<g transform="translate(315.2,439.9)" stroke="none" fill="black" font-family="Arial" font-size="12.00"  text-anchor="middle">
		<text><tspan font-family="Arial" > 40</tspan></text>
	</g>
</g>
<g fill="none" color="black" stroke="currentColor" stroke-width="1.00" stroke-linecap="butt" stroke-linejoin="miter">
	<path stroke='black'  d='M366.0,418.0 L366.0,409.0 M366.0,18.1 L366.0,27.1  '/>	<g transform="translate(366.0,439.9)" stroke="none" fill="black" font-family="Arial" font-size="12.00"  text-anchor="middle">
		<text><tspan font-family="Arial" > 50</tspan></text>
	</g>
</g>
<g fill="none" color="black" stroke="currentColor" stroke-width="1.00" stroke-linecap="butt" stroke-linejoin="miter">
	<path stroke='black'  d='M416.8,418.0 L416.8,409.0 M416.8,18.1 L416.8,27.1  '/>	<g transform="translate(416.8,439.9)" stroke="none" fill="black" font-family="Arial" font-size="12.00"  text-anchor="middle">
		<text><tspan font-family="Arial" > 60</tspan></text>
	</g>
</g>
<g fill="none" color="black" stroke="currentColor" stroke-width="1.00" stroke-linecap="butt" stroke-linejoin="miter">
	<path stroke='black'  d='M467.7,418.0 L467.7,409.0 M467.7,18.1 L467.7,27.1  '/>	<g transform="translate(467.7,439.9)" stroke="none" fill="black" font-family="Arial" font-size="12.00"  text-anchor="middle">
		<text><tspan font-family="Arial" > 70</tspan></text>
	</g>
</g>
<g fill="none" color="black" stroke="currentColor" stroke-width="1.00" stroke-linecap="butt" stroke-linejoin="miter">
	<path stroke='black'  d='M518.5,418.0 L518.5,409.0 M518.5,18.1 L518.5,27.1  '/>	<g transform="translate(518.5,439.9)" stroke="none" fill="black" font-family="Arial" font-size="12.00"  text-anchor="middle">
		<text><tspan font-family="Arial" > 80</tspan></text>
	</g>
</g>
<g fill="none" color="black" stroke="currentColor" stroke-width="1.00" stroke-linecap="butt" stroke-linejoin="miter">
	<path stroke='black'  d='M569.3,418.0 L569.3,409.0 M569.3,18.1 L569.3,27.1  '/>	<g transform="translate(569.3,439.9)" stroke="none" fill="black" font-family="Arial" font-size="12.00"  text-anchor="middle">
		<text><tspan font-family="Arial" > 90</tspan></text>
	</g>
</g>
<g fill="none" color="black" stroke="currentColor" stroke-width="1.00" stroke-linecap="butt" stroke-linejoin="miter">
</g>
<g fill="none" color="black" stroke="currentColor" stroke-width="1.00" stroke-linecap="butt" stroke-linejoin="miter">
	<path stroke='black'  d='M112.0,18.1 L112.0,418.0 L615.0,418.0 L615.0,18.1 L112.0,18.1 Z  '/></g>
<g fill="none" color="black" stroke="currentColor" stroke-width="1.00" stroke-linecap="butt" stroke-linejoin="miter">
</g>
	<g id="gnuplot_plot_1" ><title>raw</title>
<g fill="none" color="black" stroke="currentColor" stroke-width="1.00" stroke-linecap="butt" stroke-linejoin="miter">
	<g transform="translate(304.7,457.9)" stroke="none" fill="black" font-family="Arial" font-size="12.00"  text-anchor="end">
		<text><tspan font-family="Arial" >raw</tspan></text>
	</g>
</g>
<g fill="none" color="black" stroke="currentColor" stroke-width="1.00" stroke-linecap="butt" stroke-linejoin="miter">
	<path stroke='rgb(148,   0, 211)'  d='M313.0,454.0 L355.2,454.0 M112.0,147.7 L117.1,35.2 L122.2,194.6 L127.2,100.8 L132.3,232.1 L137.4,110.2
		L142.5,297.8 L147.6,325.9 L152.6,147.7 L157.7,250.9 L162.8,53.9 L167.9,53.9 L173.0,129.0 L178.1,232.1
		L183.1,129.0 L188.2,288.4 L193.3,110.2 L198.4,175.8 L203.5,410.3 L208.5,129.0 L213.6,119.6 L218.7,129.0
		L223.8,157.1 L228.9,260.3 L233.9,213.4 L239.0,91.4 L244.1,129.0 L249.2,232.1 L254.3,185.2 L259.3,185.2
		L264.4,260.3 L269.5,35.2 L274.6,91.4 L279.7,260.3 L284.7,222.7 L289.8,307.1 L294.9,194.6 L300.0,250.9
		L305.1,166.5 L310.2,138.3 L315.2,147.7 L320.3,241.5 L325.4,63.3 L330.5,250.9 L335.6,222.7 L340.6,344.7
		L345.7,241.5 L350.8,222.7 L355.9,119.6 L361.0,157.1 L366.0,222.7 L371.1,100.8 L376.2,232.1 L381.3,204.0
		L386.4,175.8 L391.4,232.1 L396.5,297.8 L401.6,138.3 L406.7,166.5 L411.8,72.7 L416.8,175.8 L421.9,44.5
		L427.0,250.9 L432.1,400.9 L437.2,100.8 L442.3,222.7 L447.3,194.6 L452.4,91.4 L457.5,166.5 L462.6,175.8
		L467.7,138.3 L472.7,194.6 L477.8,204.0 L482.9,129.0 L488.0,222.7 L493.1,232.1 L498.1,35.2 L503.2,91.4
		L508.3,297.8 L513.4,260.3 L518.5,63.3 L523.5,250.9 L528.6,232.1 L533.7,204.0 L538.8,157.1 L543.9,129.0
		L548.9,138.3 L554.0,100.8 L559.1,35.2 L564.2,53.9 L569.3,157.1 L574.4,288.4 L579.4,307.1 L584.5,166.5
		L589.6,250.9 L594.7,25.8 L599.8,232.1 L604.8,288.4 L609.9,53.9 L615.0,372.8  '/></g>
	</g>
	<g id="gnuplot_plot_2" ><title>score p10=2731008</title>
<g fill="none" color="black" stroke="currentColor" stroke-width="1.00" stroke-linecap="butt" stroke-linejoin="miter">
	<g transform="translate(304.7,475.9)" stroke="none" fill="black" font-family="Arial" font-size="12.00"  text-anchor="end">
		<text><tspan font-family="Arial" >score p10=2731008</tspan></text>
	</g>
</g>
<g fill="none" color="black" stroke="currentColor" stroke-width="1.00" stroke-linecap="butt" stroke-linejoin="miter">
	<path stroke='rgb(  0, 158, 115)'  d='M313.0,472.0 L355.2,472.0  '/></g>
	</g>
	<g id="gnuplot_plot_3" ><title>score median=4096000</title>
<g fill="none" color="black" stroke="currentColor" stroke-width="1.00" stroke-linecap="butt" stroke-linejoin="miter">
	<g transform="translate(529.5,457.9)" stroke="none" fill="black" font-family="Arial" font-size="12.00"  text-anchor="end">
		<text><tspan font-family="Arial" >score median=4096000</tspan></text>
	</g>
</g>
<g fill="none" color="black" stroke="currentColor" stroke-width="1.00" stroke-linecap="butt" stroke-linejoin="miter">
	<path stroke='rgb( 86, 180, 233)'  d='M537.8,454.0 L580.0,454.0  '/></g>
	</g>
<g fill="none" color="#FFFFFF" stroke="rgb( 86, 180, 233)" stroke-width="2.00" stroke-linecap="butt" stroke-linejoin="miter">
</g>
<g fill="none" color="black" stroke="currentColor" stroke-width="2.00" stroke-linecap="butt" stroke-linejoin="miter">
</g>
<g fill="none" color="black" stroke="black" stroke-width="1.00" stroke-linecap="butt" stroke-linejoin="miter">
</g>
<g fill="none" color="black" stroke="currentColor" stroke-width="1.00" stroke-linecap="butt" stroke-linejoin="miter">
	<path stroke='black'  d='M112.0,18.1 L112.0,418.0 L615.0,418.0 L615.0,18.1 L112.0,18.1 Z  '/></g>
<g fill="none" color="black" stroke="currentColor" stroke-width="1.00" stroke-linecap="butt" stroke-linejoin="miter">
</g>
</g>
</svg>
